<?xml version="1.0" encoding="UTF-8"?>
<map version="1.10" tiledversion="1.11.1" orientation="orthogonal" renderorder="right-down" width="50" height="50" tilewidth="16" tileheight="16" infinite="1" nextlayerid="17" nextobjectid="1">
 <tileset firstgid="1" source="Outdoors.tsx"/>
 <tileset firstgid="401" source="Experimental Lab.tsx"/>
 <tileset firstgid="801" source="Characters.tsx"/>
 <tileset firstgid="1201" source="Theoretical Lab.tsx"/>
 <tileset firstgid="1601" source="Seminarroom.tsx"/>
 <tileset firstgid="2001" source="Cafeteria.tsx"/>
 <layer id="9" name="Outdoors" width="50" height="50">
  <data encoding="csv">
   <chunk x="-32" y="0" width="16" height="16">
0,0,0,0,0,0,0,0,0,0,0,0,107,107,107,26,
0,0,0,0,0,0,0,0,0,0,0,0,107,107,107,47,
0,0,0,0,0,0,0,0,0,0,0,0,107,107,107,107,
0,0,0,0,0,0,0,0,0,0,0,0,45,107,26,47,
0,0,0,0,0,0,0,0,0,0,0,0,107,89,87,47,
0,0,0,0,0,0,0,0,0,0,0,0,107,45,47,47,
0,0,0,0,0,0,0,0,0,0,0,0,107,107,47,47,
0,0,0,0,0,0,0,0,0,0,0,0,107,107,47,47,
0,0,0,0,0,0,0,0,0,0,0,0,107,107,47,47,
0,0,0,0,0,0,0,0,0,0,0,0,107,107,65,47,
0,0,0,0,0,0,0,0,0,0,0,0,107,89,47,27,
0,0,0,0,0,0,0,0,0,0,0,0,107,47,47,26,
0,0,0,0,0,0,0,0,0,0,0,0,65,47,107,45,
0,0,0,0,0,0,0,0,0,0,0,0,46,107,107,87,
0,0,0,0,0,0,0,0,0,0,0,0,90,107,107,107,
0,0,0,0,0,0,0,0,0,0,0,0,86,107,107,107
</chunk>
   <chunk x="-16" y="0" width="16" height="16">
27,72,86,47,107,107,107,47,72,66,27,92,45,107,107,65,
66,47,47,47,47,90,107,107,107,107,107,107,107,86,47,47,
107,107,107,107,47,47,85,90,87,107,107,107,107,107,47,67,
88,46,47,26,47,47,47,65,87,26,65,87,47,25,86,71,
47,47,47,47,85,47,85,89,86,89,25,86,65,47,47,47,
47,47,87,47,90,65,26,45,66,26,26,90,90,27,86,85,
47,47,47,90,91,25,71,88,47,71,26,71,90,85,46,71,
47,47,47,47,47,47,47,47,47,47,47,47,47,47,47,47,
47,66,87,26,26,27,66,27,91,27,85,86,45,86,47,47,
47,91,46,91,26,71,47,86,66,46,86,72,92,26,71,47,
47,71,86,87,47,27,89,87,72,67,25,86,85,27,88,47,
47,47,27,72,65,86,90,66,27,26,47,72,45,85,25,87,
47,86,47,86,85,89,47,72,47,47,47,66,89,89,67,47,
25,85,47,72,90,90,47,47,65,47,47,87,47,47,47,47,
107,45,47,47,87,47,65,45,47,47,47,47,47,127,127,127,
107,107,107,47,47,28,29,30,47,47,87,25,47,127,47,127
</chunk>
   <chunk x="0" y="0" width="16" height="16">
67,91,46,90,27,45,90,46,47,87,71,45,91,27,87,65,
47,47,47,66,66,71,47,92,67,72,26,46,91,90,66,65,
71,91,47,47,47,47,47,47,47,47,91,89,86,26,26,47,
87,85,87,65,92,26,46,26,26,25,47,47,47,72,47,92,
47,92,46,26,85,127,127,127,72,27,65,86,47,47,47,47,
47,47,47,47,47,127,127,127,127,127,127,47,45,86,45,47,
47,46,27,47,47,127,127,127,127,127,72,47,27,47,47,87,
47,47,47,47,47,26,47,72,86,66,47,47,47,72,91,47,
47,47,66,46,72,47,28,29,30,47,28,29,29,30,47,47,
47,47,47,47,47,47,68,32,49,29,49,49,49,50,91,47,
47,47,47,47,26,65,47,48,49,49,69,69,69,70,47,47,
71,47,47,47,47,47,47,48,49,50,47,71,66,47,47,47,
47,90,91,47,47,127,127,48,49,50,47,47,47,92,89,27,
47,47,47,47,72,127,88,48,31,70,47,47,47,47,47,25,
47,47,127,127,92,89,47,48,50,47,45,92,86,92,47,47,
127,127,127,127,72,91,47,68,70,47,85,67,72,66,47,47
</chunk>
   <chunk x="16" y="0" width="16" height="16">
90,26,46,91,87,66,71,45,92,91,71,106,106,106,0,0,
87,72,65,65,26,86,88,67,89,72,85,46,106,106,0,0,
47,47,47,25,72,87,90,86,65,27,106,106,71,89,0,0,
27,47,90,89,90,27,90,72,106,106,106,106,85,86,0,0,
47,47,45,25,72,65,72,26,106,106,47,47,88,91,0,0,
26,86,47,47,47,47,47,47,106,106,67,47,72,106,0,0,
72,86,86,26,66,90,71,91,106,106,89,47,27,106,0,0,
47,47,47,47,47,47,47,47,147,127,27,47,90,106,0,0,
47,47,47,47,27,90,90,47,127,127,92,106,65,106,0,0,
47,45,47,67,47,47,86,47,127,127,47,106,106,106,0,0,
47,47,47,87,88,65,47,47,127,47,47,106,106,106,0,0,
46,89,47,47,47,47,47,47,127,47,47,106,106,106,0,0,
47,87,47,47,47,67,46,47,47,47,47,106,106,106,0,0,
47,47,47,91,91,47,47,47,86,47,47,106,106,106,0,0,
47,47,47,86,47,47,47,47,47,47,47,72,106,106,0,0,
47,47,47,47,47,47,65,47,47,65,47,45,106,106,0,0
</chunk>
   <chunk x="-32" y="16" width="16" height="16">
0,0,0,0,0,0,0,0,0,0,0,0,72,107,146,107,
0,0,0,0,0,0,0,0,0,0,0,0,87,47,107,92,
0,0,0,0,0,0,0,0,0,0,0,0,45,47,90,47,
0,0,0,0,0,0,0,0,0,0,0,0,90,47,47,47,
0,0,0,0,0,0,0,0,0,0,0,0,45,47,47,47,
0,0,0,0,0,0,0,0,0,0,0,0,91,47,47,47,
0,0,0,0,0,0,0,0,0,0,0,0,47,47,47,47,
0,0,0,0,0,0,0,0,0,0,0,0,47,47,47,47,
0,0,0,0,0,0,0,0,0,0,0,0,47,47,85,47,
0,0,0,0,0,0,0,0,0,0,0,0,47,26,89,89,
0,0,0,0,0,0,0,0,0,0,0,0,66,26,106,87,
0,0,0,0,0,0,0,0,0,0,0,0,88,106,106,106,
0,0,0,0,0,0,0,0,0,0,0,0,85,106,106,106,
0,0,0,0,0,0,0,0,0,0,0,0,90,72,87,106,
0,0,0,0,0,0,0,0,0,0,0,0,0,0,0,0,
0,0,0,0,0,0,0,0,0,0,0,0,0,0,0,0
</chunk>
   <chunk x="-16" y="16" width="16" height="16">
87,26,65,47,66,48,49,50,25,106,87,45,27,47,47,47,
25,72,86,47,47,48,49,50,106,106,65,71,47,47,47,47,
28,29,29,30,47,48,49,50,106,106,47,47,47,47,66,47,
48,49,49,50,89,48,49,50,106,106,89,47,47,47,47,47,
48,49,49,51,30,68,32,51,30,47,72,26,46,91,89,47,
48,49,49,49,50,88,48,49,50,47,47,47,47,47,47,27,
68,69,69,69,70,27,68,69,70,47,47,47,47,47,47,25,
47,47,47,47,66,47,47,92,27,89,67,47,47,47,47,89,
47,47,47,47,67,47,47,47,47,106,47,47,47,47,47,47,
90,27,67,90,47,47,47,47,47,106,47,47,47,47,47,47,
87,87,106,106,27,87,89,106,106,147,106,106,92,91,66,47,
106,87,87,87,106,106,25,47,47,106,106,106,72,65,87,86,
106,106,106,106,106,106,106,87,90,26,45,72,65,85,87,85,
106,106,106,106,106,85,88,25,92,88,87,26,71,92,46,71,
0,0,0,0,0,0,0,0,0,0,0,0,0,0,0,0,
0,0,0,0,0,0,0,0,0,0,0,0,0,0,0,0
</chunk>
   <chunk x="0" y="16" width="16" height="16">
86,72,25,66,47,47,47,47,47,87,88,71,47,47,47,47,
47,47,47,47,47,47,47,47,47,47,47,47,47,47,47,47,
47,47,47,47,71,88,47,47,91,72,47,27,72,47,47,89,
47,72,87,72,91,47,91,47,45,47,65,85,47,47,71,71,
47,87,26,87,47,47,91,47,47,47,47,47,47,86,67,27,
47,47,47,47,66,67,27,45,47,47,47,47,47,91,72,47,
65,72,26,92,85,47,47,47,47,27,26,47,47,47,47,47,
45,45,85,65,47,47,89,89,47,47,47,47,47,47,47,47,
47,47,47,47,47,47,47,47,47,47,47,47,47,47,47,72,
47,88,85,86,88,72,71,88,46,25,47,89,47,47,71,66,
47,47,47,47,47,47,47,47,47,47,47,47,47,47,47,47,
66,47,47,71,92,87,45,72,91,85,65,106,106,106,47,47,
46,65,25,47,47,47,91,47,46,66,106,106,106,106,106,47,
92,45,45,67,89,46,47,47,47,47,106,106,106,106,106,106,
0,0,0,0,0,0,0,0,0,0,0,0,0,0,0,0,
0,0,0,0,0,0,0,0,0,0,0,0,0,0,0,0
</chunk>
   <chunk x="16" y="16" width="16" height="16">
47,47,47,47,47,47,47,89,85,67,47,47,106,25,0,0,
47,85,27,47,65,89,25,65,90,71,47,47,46,87,0,0,
87,47,85,47,92,47,46,25,90,47,47,89,47,88,0,0,
88,47,86,47,89,71,86,47,47,85,71,91,26,47,0,0,
85,47,65,47,47,47,47,89,26,45,47,67,91,45,0,0,
47,47,47,71,47,26,85,47,67,71,91,65,72,88,0,0,
45,47,47,88,106,106,106,86,91,71,72,25,46,67,0,0,
47,47,106,106,106,106,106,106,106,27,92,71,90,65,0,0,
47,106,106,106,106,106,147,106,106,106,72,106,106,106,0,0,
47,66,45,106,106,106,106,106,106,71,72,106,106,106,0,0,
47,47,47,47,47,88,106,106,106,106,106,106,86,106,0,0,
47,67,92,47,106,106,106,106,106,106,106,106,106,106,0,0,
47,47,25,88,90,47,91,146,106,106,106,106,106,91,0,0,
106,106,106,47,47,47,91,106,106,106,106,106,106,66,0,0,
0,0,0,0,0,0,0,0,0,0,0,0,0,0,0,0,
0,0,0,0,0,0,0,0,0,0,0,0,0,0,0,0
</chunk>
  </data>
 </layer>
 <layer id="10" name="Rooms" width="50" height="50">
  <data encoding="csv">
   <chunk x="-32" y="0" width="16" height="16">
0,0,0,0,0,0,0,0,0,0,0,0,0,0,0,0,
0,0,0,0,0,0,0,0,0,0,0,0,0,0,0,0,
0,0,0,0,0,0,0,0,0,0,0,0,0,0,0,0,
0,0,0,0,0,0,0,0,0,0,0,0,0,0,401,406,
0,0,0,0,0,0,0,0,0,0,0,0,0,0,421,426,
0,0,0,0,0,0,0,0,0,0,0,0,0,0,441,442,
0,0,0,0,0,0,0,0,0,0,0,0,0,0,541,542,
0,0,0,0,0,0,0,0,0,0,0,0,0,0,541,542,
0,0,0,0,0,0,0,0,0,0,0,0,0,0,541,542,
0,0,0,0,0,0,0,0,0,0,0,0,0,0,541,542,
0,0,0,0,0,0,0,0,0,0,0,0,0,0,541,542,
0,0,0,0,0,0,0,0,0,0,0,0,0,0,541,542,
0,0,0,0,0,0,0,0,0,0,0,0,0,0,541,542,
0,0,0,0,0,0,0,0,0,0,0,0,0,0,561,562,
0,0,0,0,0,0,0,0,0,0,0,0,0,0,581,582,
0,0,0,0,0,0,0,0,0,0,0,0,0,0,0,0
</chunk>
   <chunk x="-16" y="0" width="16" height="16">
0,0,0,0,0,0,0,0,0,0,0,0,0,0,0,0,
0,0,0,0,0,0,0,0,0,0,0,0,0,0,0,0,
0,0,0,0,0,0,0,0,0,0,0,0,0,0,0,0,
408,406,408,406,408,406,408,407,410,0,0,0,0,0,0,0,
428,426,428,426,428,426,428,427,430,1201,1206,1208,1209,1208,1209,1207,
448,447,448,447,448,446,448,447,450,1221,1226,1228,1229,1228,1229,1227,
463,463,463,463,464,465,466,467,450,1241,1242,1248,1249,1248,1249,1247,
483,483,483,483,484,485,486,487,405,1202,1262,1266,1266,1266,1267,1268,
503,503,503,503,504,505,506,507,425,1222,1262,1286,1286,1286,1287,1288,
463,463,463,463,464,465,466,488,445,1246,1283,1306,1306,1306,1307,1308,
483,483,483,483,484,485,486,508,508,1285,1283,1283,1283,1283,1283,1283,
503,503,503,503,504,505,506,507,568,565,1283,1283,1283,1283,1283,1283,
523,523,523,523,524,525,526,527,550,1341,1343,1344,1344,1344,1344,1344,
563,564,563,564,565,566,567,568,570,1361,1363,1364,1364,1364,1364,1364,
583,584,583,584,585,586,587,588,590,1381,1383,1384,1384,1384,1384,1384,
0,0,0,0,0,0,0,0,0,2001,2006,2008,2008,2006,2006,2006
</chunk>
   <chunk x="0" y="0" width="16" height="16">
0,0,0,0,0,0,0,0,0,0,0,0,0,0,0,0,
0,0,0,0,0,0,0,0,0,0,0,0,0,0,0,0,
0,0,0,0,0,0,0,0,0,0,0,0,0,1601,1606,1606,
0,0,0,0,0,0,0,0,0,0,0,0,0,1621,1626,1626,
1206,1207,1206,1207,1207,1210,0,0,0,0,0,0,0,1621,1642,1646,
1226,1227,1226,1227,1227,1230,0,0,0,0,0,0,0,1641,1662,1663,
1246,1247,1246,1247,1247,1250,0,0,0,0,0,0,0,1641,1662,1683,
1283,1283,1283,1283,1283,1270,0,0,0,0,0,0,0,1661,1662,1703,
1283,1283,1283,1283,1283,1290,0,0,0,0,0,0,0,1681,1682,1723,
1283,1283,1283,1283,1283,1310,0,0,0,0,0,0,0,1701,1702,1723,
1283,1283,1283,1283,1283,1330,0,0,0,0,0,0,0,1721,1722,1723,
1283,1283,1283,1283,1283,1350,0,0,0,0,0,0,0,1741,1742,1723,
1344,1344,1344,1344,1349,1350,0,0,0,0,0,0,0,1741,1742,1723,
1364,1364,1364,1364,1369,1370,0,0,0,0,0,0,0,1741,1742,1723,
1384,1384,1384,1384,1389,1390,0,0,0,0,0,0,0,1741,1742,1723,
2008,2008,2006,2006,2006,2007,2002,2003,2004,2005,2010,0,0,1741,1742,1723
</chunk>
   <chunk x="16" y="0" width="16" height="16">
0,0,0,0,0,0,0,0,0,0,0,0,0,0,0,0,
0,0,0,0,0,0,0,0,0,0,0,0,0,0,0,0,
1606,1606,1606,1606,1607,1606,1606,1607,1610,0,0,0,0,0,0,0,
1626,1626,1626,1626,1627,1626,1626,1627,1630,0,0,0,0,0,0,0,
1646,1646,1646,1646,1647,1646,1646,1647,1650,0,0,0,0,0,0,0,
1664,1665,1663,1663,1663,1664,1665,1666,1650,0,0,0,0,0,0,0,
1684,1685,1683,1683,1663,1664,1665,1666,1650,0,0,0,0,0,0,0,
1704,1705,1703,1703,1663,1664,1665,1666,1650,0,0,0,0,0,0,0,
1724,1663,1703,1704,1663,1664,1665,1666,1650,0,0,0,0,0,0,0,
1724,1683,1703,1704,1663,1664,1665,1666,1650,0,0,0,0,0,0,0,
1724,1703,1703,1704,1663,1664,1665,1666,1650,0,0,0,0,0,0,0,
1724,1703,1704,1705,1663,1664,1665,1666,1650,0,0,0,0,0,0,0,
1724,1703,1704,1705,1663,1664,1665,1666,1650,0,0,0,0,0,0,0,
1724,1703,1704,1705,1663,1664,1665,1666,1650,0,0,0,0,0,0,0,
1724,1703,1704,1705,1663,1664,1665,1666,1650,0,0,0,0,0,0,0,
1724,1725,1703,1704,1663,1664,1665,1666,1650,0,0,0,0,0,0,0
</chunk>
   <chunk x="-16" y="16" width="16" height="16">
0,0,0,0,0,0,0,0,0,2021,2026,2028,2028,2026,2026,2026,
0,0,0,0,0,0,0,0,0,2021,2042,2048,2048,2046,2046,2046,
0,0,0,0,0,0,0,0,0,2021,2062,2124,2125,2126,2127,2128,
0,0,0,0,0,0,0,0,0,2041,2062,2124,2125,2126,2127,2128,
0,0,0,0,0,0,0,0,0,2061,2062,2124,2125,2126,2127,2128,
0,0,0,0,0,0,0,0,0,2081,2082,2124,2125,2126,2127,2128,
0,0,0,0,0,0,0,0,0,2101,2102,2124,2125,2126,2127,2128,
0,0,0,0,0,0,0,0,0,2121,2062,2125,2126,2127,2128,2129,
0,0,0,0,0,0,0,0,0,2141,2062,2145,2146,2147,2148,2149,
0,0,0,0,0,0,0,0,0,2161,2169,2169,2169,2169,2169,2169,
0,0,0,0,0,0,0,0,0,2181,2189,2189,2189,2189,2189,2189,
0,0,0,0,0,0,0,0,0,0,0,0,0,0,0,0,
0,0,0,0,0,0,0,0,0,0,0,0,0,0,0,0,
0,0,0,0,0,0,0,0,0,0,0,0,0,0,0,0,
0,0,0,0,0,0,0,0,0,0,0,0,0,0,0,0,
0,0,0,0,0,0,0,0,0,0,0,0,0,0,0,0
</chunk>
   <chunk x="0" y="16" width="16" height="16">
2028,2028,2026,2026,2026,2027,2022,2023,2024,2025,2030,0,0,1741,1742,1723,
2048,2048,2046,2046,2046,2047,2046,2043,2044,2045,2050,0,0,1741,1742,1723,
2129,2129,2126,2127,2128,2129,2129,2129,2129,2129,2150,0,0,1741,1742,1743,
2129,2149,2129,2127,2128,2129,2149,2149,2149,2149,2150,0,0,1761,1762,1763,
2129,2149,2149,2127,2128,2129,2146,2147,2148,2149,2150,0,0,1781,1782,1783,
2129,2148,2149,2129,2128,2129,2146,2147,2148,2149,2150,0,0,0,0,0,
2129,2148,2149,2149,2129,2129,2146,2147,2148,2149,2150,0,0,0,0,0,
2129,2147,2148,2149,2149,2149,2129,2129,2129,2129,2150,0,0,0,0,0,
2149,2148,2149,2149,2149,2149,2149,2149,2149,2149,2150,0,0,0,0,0,
2169,2169,2169,2169,2169,2169,2169,2169,2169,2169,2170,0,0,0,0,0,
2189,2189,2189,2189,2189,2189,2189,2189,2189,2189,2190,0,0,0,0,0,
0,0,0,0,0,0,0,0,0,0,0,0,0,0,0,0,
0,0,0,0,0,0,0,0,0,0,0,0,0,0,0,0,
0,0,0,0,0,0,0,0,0,0,0,0,0,0,0,0,
0,0,0,0,0,0,0,0,0,0,0,0,0,0,0,0,
0,0,0,0,0,0,0,0,0,0,0,0,0,0,0,0
</chunk>
   <chunk x="16" y="16" width="16" height="16">
1724,1725,1703,1704,1663,1664,1665,1666,1650,0,0,0,0,0,0,0,
1724,1725,1703,1704,1683,1684,1685,1686,1650,0,0,0,0,0,0,0,
1743,1743,1743,1743,1703,1704,1705,1706,1650,0,0,0,0,0,0,0,
1763,1763,1763,1763,1763,1763,1764,1769,1770,0,0,0,0,0,0,0,
1783,1783,1783,1783,1783,1783,1784,1789,1790,0,0,0,0,0,0,0,
0,0,0,0,0,0,0,0,0,0,0,0,0,0,0,0,
0,0,0,0,0,0,0,0,0,0,0,0,0,0,0,0,
0,0,0,0,0,0,0,0,0,0,0,0,0,0,0,0,
0,0,0,0,0,0,0,0,0,0,0,0,0,0,0,0,
0,0,0,0,0,0,0,0,0,0,0,0,0,0,0,0,
0,0,0,0,0,0,0,0,0,0,0,0,0,0,0,0,
0,0,0,0,0,0,0,0,0,0,0,0,0,0,0,0,
0,0,0,0,0,0,0,0,0,0,0,0,0,0,0,0,
0,0,0,0,0,0,0,0,0,0,0,0,0,0,0,0,
0,0,0,0,0,0,0,0,0,0,0,0,0,0,0,0,
0,0,0,0,0,0,0,0,0,0,0,0,0,0,0,0
</chunk>
  </data>
 </layer>
 <layer id="16" name="Chairs in Cafeteria" width="50" height="50">
  <data encoding="csv">
   <chunk x="-16" y="16" width="16" height="16">
0,0,0,0,0,0,0,0,0,0,0,0,0,0,0,0,
0,0,0,0,0,0,0,0,0,0,0,0,0,0,0,0,
0,0,0,0,0,0,0,0,0,0,0,0,0,0,0,0,
0,0,0,0,0,0,0,0,0,0,0,0,0,0,0,0,
0,0,0,0,0,0,0,0,0,0,0,0,0,0,2203,0,
0,0,0,0,0,0,0,0,0,0,0,0,0,0,2223,0,
0,0,0,0,0,0,0,0,0,0,0,0,0,0,2243,0,
0,0,0,0,0,0,0,0,0,0,0,0,0,0,0,0,
0,0,0,0,0,0,0,0,0,0,0,0,0,0,0,0,
0,0,0,0,0,0,0,0,0,0,0,0,0,0,0,0,
0,0,0,0,0,0,0,0,0,0,0,0,0,0,0,0,
0,0,0,0,0,0,0,0,0,0,0,0,0,0,0,0,
0,0,0,0,0,0,0,0,0,0,0,0,0,0,0,0,
0,0,0,0,0,0,0,0,0,0,0,0,0,0,0,0,
0,0,0,0,0,0,0,0,0,0,0,0,0,0,0,0,
0,0,0,0,0,0,0,0,0,0,0,0,0,0,0,0
</chunk>
   <chunk x="0" y="16" width="16" height="16">
0,0,0,0,0,0,0,0,0,0,0,0,0,0,0,0,
0,0,0,0,0,0,0,0,0,0,0,0,0,0,0,0,
0,0,0,0,0,0,0,0,0,0,0,0,0,0,0,0,
0,0,0,0,0,0,0,0,0,0,0,0,0,0,0,0,
2203,0,2203,0,2203,0,0,0,0,0,0,0,0,0,0,0,
2223,0,2223,0,2223,0,0,0,0,0,0,0,0,0,0,0,
2243,0,2243,0,2243,0,0,0,0,0,0,0,0,0,0,0,
0,0,0,0,0,0,0,0,0,0,0,0,0,0,0,0,
0,0,0,0,0,0,0,0,0,0,0,0,0,0,0,0,
0,0,0,0,0,0,0,0,0,0,0,0,0,0,0,0,
0,0,0,0,0,0,0,0,0,0,0,0,0,0,0,0,
0,0,0,0,0,0,0,0,0,0,0,0,0,0,0,0,
0,0,0,0,0,0,0,0,0,0,0,0,0,0,0,0,
0,0,0,0,0,0,0,0,0,0,0,0,0,0,0,0,
0,0,0,0,0,0,0,0,0,0,0,0,0,0,0,0,
0,0,0,0,0,0,0,0,0,0,0,0,0,0,0,0
</chunk>
  </data>
 </layer>
 <layer id="11" name="Furniture" width="50" height="50">
  <data encoding="csv">
   <chunk x="-32" y="0" width="16" height="16">
0,0,0,0,0,0,0,0,0,0,0,0,0,0,0,0,
0,0,0,0,0,0,0,0,0,0,0,0,0,0,0,0,
0,0,0,0,0,0,0,0,0,0,0,0,0,0,0,0,
0,0,0,0,0,0,0,0,0,0,0,0,0,0,0,0,
0,0,0,0,0,0,0,0,0,0,0,0,0,0,0,411,
0,0,0,0,0,0,0,0,0,0,0,0,0,0,0,431,
0,0,0,0,0,0,0,0,0,0,0,0,0,0,0,451,
0,0,0,0,0,0,0,0,0,0,0,0,0,0,0,531,
0,0,0,0,0,0,0,0,0,0,0,0,0,0,0,551,
0,0,0,0,0,0,0,0,0,0,0,0,0,0,0,571,
0,0,0,0,0,0,0,0,0,0,0,0,0,0,0,415,
0,0,0,0,0,0,0,0,0,0,0,0,0,0,0,435,
0,0,0,0,0,0,0,0,0,0,0,0,0,0,0,435,
0,0,0,0,0,0,0,0,0,0,0,0,0,0,0,0,
0,0,0,0,0,0,0,0,0,0,0,0,0,0,0,0,
0,0,0,0,0,0,0,0,0,0,0,0,0,0,0,0
</chunk>
   <chunk x="-16" y="0" width="16" height="16">
0,0,0,0,0,0,0,0,0,0,0,0,0,0,0,0,
0,0,0,0,0,0,0,0,0,0,0,0,0,0,0,0,
0,0,0,0,0,0,0,0,0,0,0,0,0,0,0,0,
0,0,0,0,0,670,671,593,0,0,0,0,0,0,0,1470,
412,472,412,473,0,690,691,613,0,0,1391,1392,1393,0,0,0,
432,492,432,493,0,710,711,633,0,0,1411,1412,1413,0,0,0,
452,512,452,513,0,730,731,653,0,0,1431,1432,1433,0,0,0,
532,532,532,533,0,0,0,0,0,0,1211,1212,1212,1212,1213,0,
552,552,552,553,0,0,0,0,0,0,1231,1232,1232,1232,1233,0,
572,572,572,573,0,0,0,0,0,0,1251,1252,1252,1252,1253,0,
416,415,416,415,416,417,0,0,0,0,0,0,0,0,0,0,
436,435,436,435,436,437,0,0,530,521,0,0,0,0,0,0,
436,435,436,435,436,437,0,0,0,0,0,0,0,0,0,0,
0,0,0,0,0,0,0,0,0,0,0,0,0,0,0,0,
0,0,0,0,0,0,0,0,0,0,0,0,0,0,0,0,
0,0,0,0,0,0,0,0,0,0,0,0,0,0,0,0
</chunk>
   <chunk x="0" y="0" width="16" height="16">
0,0,0,0,0,0,0,0,0,0,0,0,0,0,0,0,
0,0,0,0,0,0,0,0,0,0,0,0,0,0,0,0,
0,0,0,0,0,0,0,0,0,0,0,0,0,0,0,1827,
1471,1472,1473,0,0,0,0,0,0,0,0,0,0,0,0,1847,
0,0,1491,1492,1493,0,0,0,0,0,0,0,0,0,0,0,
0,0,1511,1512,1513,0,0,0,0,0,0,0,0,0,0,0,
1246,1467,1468,1469,0,0,0,0,0,0,0,0,0,0,0,0,
0,1487,1488,1489,0,0,0,0,0,0,0,0,0,0,0,0,
0,1507,1508,1509,0,0,0,0,0,0,0,0,0,0,0,0,
0,1527,1528,1529,0,0,0,0,0,0,0,0,0,0,0,0,
0,1331,1332,1332,1333,1334,0,0,0,0,0,0,0,0,0,1805,
0,1351,1352,1352,1353,1354,0,0,0,0,0,0,0,0,0,1825,
0,1371,1372,1372,1373,1374,0,0,0,0,0,0,0,0,1844,1845,
0,0,0,0,0,0,0,0,0,0,0,0,0,0,1864,1865,
0,0,0,0,0,0,0,0,0,0,0,0,0,0,1884,1805,
0,0,0,2211,2212,2213,0,0,0,0,0,0,0,0,0,1825
</chunk>
   <chunk x="16" y="0" width="16" height="16">
0,0,0,0,0,0,0,0,0,0,0,0,0,0,0,0,
0,0,0,0,0,0,0,0,0,0,0,0,0,0,0,0,
0,0,0,0,0,0,1807,0,0,0,0,0,0,0,0,0,
0,1866,1867,1868,1869,1870,0,0,0,0,0,0,0,0,0,0,
0,1886,1887,1888,1889,1890,0,0,0,0,0,0,0,0,0,0,
0,1906,1907,1908,1909,1910,0,0,0,0,0,0,0,0,0,0,
1711,0,1712,1713,1713,1714,1715,0,0,0,0,0,0,0,0,0,
0,1731,1732,1733,1733,1734,1735,0,0,0,0,0,0,0,0,0,
0,1771,1772,1773,1773,1774,1775,0,0,0,0,0,0,0,0,0,
0,1791,1792,1793,1793,1794,1795,0,0,0,0,0,0,0,0,0,
1805,1805,1805,1805,1805,1805,1805,0,0,0,0,0,0,0,0,0,
1825,1825,1825,1825,1825,1825,1825,0,0,0,0,0,0,0,0,0,
1844,1845,1844,1845,1844,1845,1844,1845,0,0,0,0,0,0,0,0,
1864,1865,1864,1865,1864,1865,1864,1865,0,0,0,0,0,0,0,0,
1805,1805,1805,1805,1805,1805,1805,0,0,0,0,0,0,0,0,0,
1825,1825,1825,1825,1825,1825,1825,0,0,0,0,0,0,0,0,0
</chunk>
   <chunk x="-16" y="16" width="16" height="16">
0,0,0,0,0,0,0,0,0,0,2071,2072,2012,2012,2012,2013,
0,0,0,0,0,0,0,0,0,0,2091,2092,2032,2032,2032,2033,
0,0,0,0,0,0,0,0,0,0,2111,2112,2052,2052,2052,2053,
0,0,0,0,0,0,0,0,0,0,2055,2056,0,0,0,0,
0,0,0,0,0,0,0,0,0,0,2075,2076,0,0,0,0,
0,0,0,0,0,0,0,0,0,0,0,0,0,2094,2095,2096,
0,0,0,0,0,0,0,0,0,0,0,0,0,2114,2115,2116,
0,0,0,0,0,0,0,0,0,0,0,0,0,0,2155,2156,
0,0,0,0,0,0,0,0,0,0,0,0,0,0,2175,2176,
0,0,0,0,0,0,0,0,0,0,0,0,0,0,0,0,
0,0,0,0,0,0,0,0,0,0,0,0,0,0,0,0,
0,0,0,0,0,0,0,0,0,0,0,0,0,0,0,0,
0,0,0,0,0,0,0,0,0,0,0,0,0,0,0,0,
0,0,0,0,0,0,0,0,0,0,0,0,0,0,0,0,
0,0,0,0,0,0,0,0,0,0,0,0,0,0,0,0,
0,0,0,0,0,0,0,0,0,0,0,0,0,0,0,0
</chunk>
   <chunk x="0" y="16" width="16" height="16">
2014,0,0,2231,2232,2233,0,0,0,0,0,0,0,0,1844,1845,
2034,0,0,2251,2252,2253,0,0,0,0,0,0,0,0,1864,1865,
2054,0,0,2271,2272,2273,0,0,0,0,0,0,0,0,1884,1885,
0,0,0,0,0,0,0,0,0,0,0,0,0,0,0,0,
0,0,0,0,0,0,2205,2095,2097,2204,0,0,0,0,0,0,
2097,2094,2095,2096,2097,0,2225,2115,2117,2224,0,0,0,0,0,0,
2117,2114,2115,2116,2117,0,2205,2135,2137,2244,0,0,0,0,0,0,
2157,2154,2155,2156,2157,0,2225,2155,2157,2224,0,0,0,0,0,0,
2177,2174,2175,2176,2177,0,2174,2175,2177,2244,0,0,0,0,0,0,
0,0,0,0,0,0,0,0,0,0,0,0,0,0,0,0,
0,0,0,0,0,0,0,0,0,0,0,0,0,0,0,0,
0,0,0,0,0,0,0,0,0,0,0,0,0,0,0,0,
0,0,0,0,0,0,0,0,0,0,0,0,0,0,0,0,
0,0,0,0,0,0,0,0,0,0,0,0,0,0,0,0,
0,0,0,0,0,0,0,0,0,0,0,0,0,0,0,0,
0,0,0,0,0,0,0,0,0,0,0,0,0,0,0,0
</chunk>
   <chunk x="16" y="16" width="16" height="16">
1844,1845,1844,1845,1844,1845,1844,1845,0,0,0,0,0,0,0,0,
1864,1865,1864,1865,1864,1865,1864,1865,0,0,0,0,0,0,0,0,
1884,1885,1884,1885,1884,1885,1884,1885,0,0,0,0,0,0,0,0,
0,0,0,0,0,0,0,0,0,0,0,0,0,0,0,0,
0,0,0,0,0,0,0,0,0,0,0,0,0,0,0,0,
0,0,0,0,0,0,0,0,0,0,0,0,0,0,0,0,
0,0,0,0,0,0,0,0,0,0,0,0,0,0,0,0,
0,0,0,0,0,0,0,0,0,0,0,0,0,0,0,0,
0,0,0,0,0,0,0,0,0,0,0,0,0,0,0,0,
0,0,0,0,0,0,0,0,0,0,0,0,0,0,0,0,
0,0,0,0,0,0,0,0,0,0,0,0,0,0,0,0,
0,0,0,0,0,0,0,0,0,0,0,0,0,0,0,0,
0,0,0,0,0,0,0,0,0,0,0,0,0,0,0,0,
0,0,0,0,0,0,0,0,0,0,0,0,0,0,0,0,
0,0,0,0,0,0,0,0,0,0,0,0,0,0,0,0,
0,0,0,0,0,0,0,0,0,0,0,0,0,0,0,0
</chunk>
  </data>
 </layer>
 <layer id="12" name="Objects" width="50" height="50">
  <data encoding="csv">
   <chunk x="-32" y="0" width="16" height="16">
0,0,0,0,0,0,0,0,0,0,0,0,0,0,0,0,
0,0,0,0,0,0,0,0,0,0,0,0,0,0,0,0,
0,0,0,0,0,0,0,0,0,0,0,0,0,0,0,0,
0,0,0,0,0,0,0,0,0,0,0,0,0,0,0,0,
0,0,0,0,0,0,0,0,0,0,0,0,0,0,0,0,
0,0,0,0,0,0,0,0,0,0,0,0,0,0,0,0,
0,0,0,0,0,0,0,0,0,0,0,0,0,0,0,0,
0,0,0,0,0,0,0,0,0,0,0,0,0,0,0,0,
0,0,0,0,0,0,0,0,0,0,0,0,0,0,0,0,
0,0,0,0,0,0,0,0,0,0,0,0,0,0,0,602,
0,0,0,0,0,0,0,0,0,0,0,0,0,0,0,0,
0,0,0,0,0,0,0,0,0,0,0,0,0,0,0,645,
0,0,0,0,0,0,0,0,0,0,0,0,0,0,0,0,
0,0,0,0,0,0,0,0,0,0,0,0,0,0,0,0,
0,0,0,0,0,0,0,0,0,0,0,0,0,0,0,0,
0,0,0,0,0,0,0,0,0,0,0,0,0,0,0,0
</chunk>
   <chunk x="-16" y="0" width="16" height="16">
0,0,0,0,0,0,0,0,0,0,0,0,0,0,0,0,
0,0,0,0,0,0,0,0,0,0,0,0,0,0,0,0,
0,0,0,0,0,0,0,0,0,0,0,0,0,0,0,0,
0,0,0,0,0,0,0,0,0,0,0,0,0,0,0,0,
604,605,606,607,0,0,0,0,0,0,0,0,0,0,0,0,
624,625,626,627,0,0,0,0,0,0,0,0,0,0,0,0,
0,0,0,0,0,0,0,0,0,0,0,0,0,0,0,0,
645,644,0,645,0,0,0,0,0,0,0,1465,1466,1465,1466,0,
0,0,0,0,0,0,0,0,0,0,0,1485,1486,1485,1486,0,
0,0,0,0,0,0,0,0,0,0,0,0,0,0,0,0,
0,644,0,0,0,0,0,0,0,0,0,0,0,0,0,0,
0,0,0,0,602,0,0,0,0,0,0,0,0,0,0,0,
0,0,0,0,602,0,0,0,0,0,0,0,0,0,0,0,
0,0,0,0,0,0,0,0,0,0,0,0,0,0,0,0,
0,0,0,0,0,0,0,0,0,0,0,0,0,0,0,0,
0,0,0,0,0,0,0,0,0,0,2208,0,0,0,2209,0
</chunk>
   <chunk x="0" y="0" width="16" height="16">
0,0,0,0,0,0,0,0,0,0,0,0,0,0,0,0,
0,0,0,0,0,0,0,0,22,23,24,0,0,0,0,0,
0,0,0,0,0,0,0,0,42,43,44,0,0,0,0,0,
0,0,0,0,0,0,0,0,62,63,64,0,0,0,1831,1832,
1409,0,0,0,0,0,0,0,82,83,84,0,0,0,1851,1852,
1429,0,0,0,0,0,0,0,102,103,104,0,0,0,0,0,
0,0,0,0,0,0,0,0,0,0,0,0,0,0,0,0,
0,0,0,0,0,0,0,0,0,0,0,0,0,0,0,0,
0,0,0,0,0,0,0,0,0,0,0,0,0,0,0,0,
0,0,0,0,0,0,0,0,0,0,0,0,0,0,0,0,
0,1442,0,1443,0,0,0,0,0,0,0,0,0,0,0,0,
0,1462,0,1463,0,0,0,0,0,0,0,0,0,0,0,0,
0,1422,0,1422,0,0,0,0,0,0,0,0,0,0,0,1844,
0,0,0,0,0,0,0,0,0,0,0,0,0,0,0,1864,
0,0,0,0,0,0,0,0,0,0,0,0,0,0,0,1884,
0,0,0,0,0,0,0,0,0,0,0,0,0,0,0,0
</chunk>
   <chunk x="16" y="0" width="16" height="16">
0,0,0,0,0,0,0,0,0,0,0,0,0,0,0,0,
0,0,0,0,0,0,0,0,0,0,0,0,0,0,0,0,
0,0,0,0,0,0,0,0,0,0,0,0,0,0,0,0,
0,0,0,0,0,0,1831,1832,0,0,0,0,0,0,0,0,
0,0,0,0,0,0,1851,1852,0,0,0,0,0,0,0,0,
0,0,0,0,0,0,0,0,0,0,0,0,0,0,0,0,
0,0,0,0,1891,0,0,0,0,0,0,0,0,0,0,0,
0,0,0,0,1911,0,0,0,0,0,0,0,0,0,0,0,
0,1892,0,0,0,0,1892,0,0,0,0,0,0,0,0,0,
0,1912,0,0,0,0,1912,0,0,0,0,0,0,0,0,0,
0,0,0,0,0,0,0,0,0,0,0,0,0,0,0,0,
0,0,0,0,0,0,0,0,0,0,0,0,0,0,0,0,
1845,1844,1845,1844,1845,1844,1845,0,0,0,0,0,0,0,0,0,
1865,1864,1865,1864,1865,1864,1865,0,0,0,0,0,0,0,0,0,
1885,1884,1885,1884,1885,1884,1885,0,0,0,0,0,0,0,0,0,
0,0,0,0,0,0,0,0,0,0,0,0,0,0,0,0
</chunk>
   <chunk x="-32" y="16" width="16" height="16">
0,0,0,0,0,0,0,0,0,0,0,0,0,0,0,0,
0,0,0,0,0,0,0,0,0,0,0,0,0,0,0,0,
0,0,0,0,0,0,0,0,0,0,0,0,0,0,0,0,
0,0,0,0,0,0,0,0,0,0,0,0,0,0,0,0,
0,0,0,0,0,0,0,0,0,0,0,0,0,0,22,23,
0,0,0,0,0,0,0,0,0,0,0,0,0,0,42,43,
0,0,0,0,0,0,0,0,0,0,0,0,0,0,62,63,
0,0,0,0,0,0,0,0,0,0,0,0,0,0,82,83,
0,0,0,0,0,0,0,0,0,0,0,0,0,0,102,103,
0,0,0,0,0,0,0,0,0,0,0,0,0,0,0,0,
0,0,0,0,0,0,0,0,0,0,0,0,0,0,0,0,
0,0,0,0,0,0,0,0,0,0,0,0,0,0,0,0,
0,0,0,0,0,0,0,0,0,0,0,0,0,0,0,0,
0,0,0,0,0,0,0,0,0,0,0,0,0,0,0,0,
0,0,0,0,0,0,0,0,0,0,0,0,0,0,0,0,
0,0,0,0,0,0,0,0,0,0,0,0,0,0,0,0
</chunk>
   <chunk x="-16" y="16" width="16" height="16">
0,0,0,0,0,0,0,0,0,0,2228,0,0,0,2229,0,
0,0,0,0,0,0,0,0,0,0,2248,0,0,0,2249,0,
0,0,0,0,0,0,0,0,0,0,0,2222,0,2222,0,0,
0,0,0,0,0,0,0,0,0,0,0,0,0,0,0,0,
24,0,0,0,0,0,0,0,0,0,0,0,0,0,0,0,
44,0,0,0,0,0,0,0,0,0,0,0,0,0,0,0,
64,0,0,0,0,0,0,0,0,0,0,0,0,0,0,0,
84,0,0,0,0,0,0,0,0,0,0,0,0,0,2206,0,
104,0,0,0,0,0,0,0,0,0,0,0,0,0,2226,0,
0,0,0,0,0,0,0,0,0,0,0,0,0,0,0,0,
0,0,0,0,0,0,0,0,0,0,0,0,0,0,0,0,
0,0,0,0,0,0,0,0,0,0,0,0,0,0,0,0,
0,0,0,0,0,0,0,0,0,0,0,0,0,0,0,0,
0,0,0,0,0,0,0,0,0,0,0,0,0,0,0,0,
0,0,0,0,0,0,0,0,0,0,0,0,0,0,0,0,
0,0,0,0,0,0,0,0,0,0,0,0,0,0,0,0
</chunk>
   <chunk x="0" y="16" width="16" height="16">
0,0,0,0,0,0,0,0,0,0,0,0,0,0,0,1844,
0,0,0,0,0,0,0,0,0,0,0,0,0,0,0,1864,
0,0,0,0,0,0,0,0,0,0,0,0,0,0,0,1884,
0,0,0,0,0,0,0,0,0,0,0,0,0,0,0,0,
0,0,0,0,0,0,0,0,0,0,0,0,0,0,0,0,
0,0,0,0,0,0,0,0,0,0,0,0,0,0,0,0,
0,0,0,0,0,0,0,0,0,0,0,0,0,0,0,0,
2206,0,2206,0,2206,0,0,0,0,0,0,0,0,0,0,0,
2226,0,2226,0,2226,0,0,0,0,0,0,0,0,0,0,0,
0,0,0,0,0,0,0,0,0,0,0,0,0,0,0,0,
0,0,0,0,0,0,0,0,0,0,0,0,0,0,0,0,
0,0,0,0,0,0,0,0,0,0,0,0,0,0,0,0,
0,0,0,0,0,0,0,0,0,0,0,0,0,0,0,0,
0,0,0,0,0,0,0,0,0,0,0,0,0,0,0,0,
0,0,0,0,0,0,0,0,0,0,0,0,0,0,0,0,
0,0,0,0,0,0,0,0,0,0,0,0,0,0,0,0
</chunk>
   <chunk x="16" y="16" width="16" height="16">
1845,1844,1845,1844,1845,1844,1845,0,0,0,0,0,0,0,0,0,
1865,1864,1865,1864,1865,1864,1865,0,0,0,0,0,0,0,0,0,
1885,1884,1885,1884,1885,1884,1885,0,0,0,0,0,0,0,0,0,
0,0,0,0,0,0,0,0,0,0,0,0,0,0,0,0,
0,0,0,0,0,0,0,0,0,0,0,0,0,0,0,0,
0,0,0,0,0,0,0,0,0,0,0,0,0,0,0,0,
0,0,0,0,0,0,0,0,0,0,0,0,0,0,0,0,
0,0,0,0,0,0,0,22,23,24,22,23,24,0,0,0,
0,0,0,0,0,0,0,42,43,44,42,43,44,0,0,0,
0,0,0,0,0,0,0,62,63,64,62,63,64,0,0,0,
0,0,0,0,0,0,0,82,83,84,82,83,84,0,0,0,
0,0,0,0,0,0,0,102,103,104,102,103,104,0,0,0,
0,0,0,0,0,0,0,0,0,0,0,0,0,0,0,0,
0,0,0,0,0,0,0,0,0,0,0,0,0,0,0,0,
0,0,0,0,0,0,0,0,0,0,0,0,0,0,0,0,
0,0,0,0,0,0,0,0,0,0,0,0,0,0,0,0
</chunk>
  </data>
 </layer>
 <layer id="14" name="Objects2" width="50" height="50">
  <data encoding="csv">
   <chunk x="-16" y="0" width="16" height="16">
0,0,0,0,0,0,0,0,0,0,0,0,0,0,0,0,
0,0,0,0,0,0,0,0,0,0,0,0,0,0,0,0,
0,0,0,0,0,0,0,0,0,0,0,0,0,0,0,0,
0,0,0,0,0,0,0,0,0,0,0,0,0,0,0,0,
0,0,0,0,0,0,0,0,0,0,0,0,0,0,0,0,
0,0,0,0,0,0,0,0,0,0,0,0,0,0,0,0,
0,0,0,0,0,0,0,0,0,0,0,0,0,0,0,0,
0,0,0,0,0,0,0,0,0,0,0,0,0,0,0,0,
0,0,0,0,0,0,0,0,0,0,0,1406,0,0,1404,0,
0,0,0,0,0,0,0,0,0,0,0,1426,0,0,1424,0,
0,0,0,0,0,0,0,0,0,0,0,1446,0,0,0,0,
0,0,0,0,0,0,0,0,0,0,0,0,0,0,0,0,
0,0,0,0,0,0,0,0,0,0,0,0,0,0,0,0,
0,0,0,0,0,0,0,0,0,0,0,0,0,0,0,0,
0,0,0,0,0,0,0,0,0,0,0,0,0,0,0,0,
0,0,0,0,0,0,0,0,0,0,0,0,0,0,0,0
</chunk>
   <chunk x="0" y="0" width="16" height="16">
0,0,0,0,0,0,0,0,0,0,0,0,0,0,0,0,
0,0,0,0,0,0,0,0,0,0,0,0,0,0,0,0,
0,0,0,0,0,0,22,23,24,0,0,0,0,0,0,0,
0,0,0,0,0,0,42,43,44,0,0,0,0,0,0,0,
0,0,0,0,0,0,62,63,64,0,0,0,0,0,0,0,
0,0,0,0,0,0,82,83,84,0,0,0,0,0,0,0,
0,0,0,0,0,0,102,103,104,0,0,0,0,0,0,0,
0,0,0,0,0,0,0,0,0,0,0,0,0,0,0,0,
0,0,0,0,0,0,0,0,0,0,0,0,0,0,0,0,
0,0,0,0,0,0,0,0,0,0,0,0,0,0,0,0,
0,0,0,0,0,0,0,0,0,0,0,0,0,0,0,0,
0,0,0,0,0,0,0,0,0,0,0,0,0,0,0,0,
0,0,0,0,0,0,0,0,0,0,0,0,0,0,0,0,
0,0,0,0,0,0,0,0,0,0,0,0,0,0,0,0,
0,0,0,0,0,0,0,0,0,0,0,0,0,0,0,0,
0,0,0,0,0,0,0,0,0,0,0,0,0,0,0,0
</chunk>
   <chunk x="16" y="16" width="16" height="16">
0,0,0,0,0,0,0,0,0,0,0,0,0,0,0,0,
0,0,0,0,0,0,0,0,0,0,0,0,0,0,0,0,
0,0,0,0,0,0,0,0,0,0,0,0,0,0,0,0,
0,0,0,0,0,0,0,0,0,0,0,0,0,0,0,0,
0,0,0,0,0,0,0,0,0,0,0,0,0,0,0,0,
0,0,0,0,0,0,0,0,0,0,0,0,0,0,0,0,
0,0,0,0,0,0,0,0,0,0,0,0,0,0,0,0,
0,0,0,0,0,0,0,0,0,0,0,0,0,0,0,0,
0,0,0,0,0,0,0,0,0,0,0,0,0,0,0,0,
0,0,0,0,0,0,22,23,24,22,23,24,22,23,0,0,
0,0,0,0,0,0,42,43,44,42,43,44,42,43,0,0,
0,0,0,0,0,0,62,63,64,62,63,64,62,63,0,0,
0,0,0,0,0,0,82,83,84,82,83,84,82,83,0,0,
0,0,0,0,0,0,102,103,104,102,103,104,102,103,104,0,
0,0,0,0,0,0,0,0,0,0,0,0,0,0,0,0,
0,0,0,0,0,0,0,0,0,0,0,0,0,0,0,0
</chunk>
  </data>
 </layer>
 <layer id="13" name="Characters" width="50" height="50">
  <data encoding="csv">
   <chunk x="-16" y="0" width="16" height="16">
0,0,0,0,0,0,0,0,0,0,0,0,0,0,0,0,
0,0,0,0,0,0,0,0,0,0,0,0,0,0,0,0,
0,0,0,0,0,0,0,0,0,0,0,0,0,0,0,0,
0,0,0,0,0,0,0,0,0,0,0,0,0,0,0,0,
0,0,0,0,0,0,0,0,0,0,0,0,0,0,0,0,
0,0,841,0,0,0,0,0,0,0,0,0,0,0,0,0,
0,0,861,0,0,0,0,0,0,0,0,0,0,0,0,0,
0,0,0,0,0,0,0,0,0,0,0,0,0,0,0,0,
0,0,0,0,0,0,0,0,0,0,0,0,0,0,0,0,
0,0,0,0,0,0,0,0,0,0,0,0,0,0,0,0,
0,0,0,0,0,0,0,0,0,0,0,0,0,0,0,0,
0,0,0,0,0,0,0,0,0,0,0,0,0,0,0,0,
0,0,0,0,0,0,0,0,0,0,0,0,0,0,0,0,
0,0,0,0,0,0,0,0,0,0,0,0,0,0,0,0,
0,0,0,0,0,0,0,0,0,0,0,0,0,0,0,0,
0,0,0,0,0,0,0,0,0,0,0,0,0,0,0,0
</chunk>
   <chunk x="0" y="0" width="16" height="16">
0,0,0,0,0,0,0,0,0,0,0,0,0,0,0,0,
0,0,0,0,0,0,0,0,0,0,0,0,0,0,0,0,
0,0,0,0,0,0,0,0,0,0,0,0,0,0,0,0,
0,0,0,0,0,0,0,0,0,0,0,0,0,0,0,0,
0,0,0,0,0,0,0,0,0,0,0,0,0,0,0,0,
0,0,0,0,0,0,0,0,0,0,0,0,0,0,0,0,
0,0,0,0,0,0,0,0,0,0,0,0,0,0,0,0,
0,811,0,0,0,0,0,0,0,0,0,0,0,0,0,0,
0,831,0,0,0,0,0,0,0,0,0,0,0,0,0,0,
0,0,0,0,0,0,0,0,0,0,0,0,0,0,0,0,
0,0,0,0,0,0,0,0,0,0,0,0,0,0,0,0,
0,0,0,0,0,0,0,0,0,0,0,0,0,0,0,0,
0,0,0,0,0,0,0,0,0,0,0,0,0,0,0,0,
0,0,0,0,0,0,0,0,0,0,0,0,0,0,0,0,
0,0,0,0,0,0,0,0,0,0,0,0,0,0,0,0,
0,0,0,0,0,0,0,0,0,0,0,0,0,0,0,0
</chunk>
  </data>
 </layer>
</map>
